X:1
T:Le bel ange du ciel
T:Peter Philips
T:1616 Les Rossignols Spirituels
T:Le bel Ange du Ciel
C:Peter Philips
%%score [ 1 2 3 4 ]
L:1/8
Q:1/4=120
M:2/2
K:F
V:1 treble nm="Soprano" snm="S"
V:2 treble nm="Alto" snm="A"
V:3 treble-8 nm="Tenor" snm="T"
V:4 bass nm="Bass" snm="B"
V:1
 F2 | c2 c2 B2 d2 | c4 B4 | A2 A2 G2 F2 | G4 F2 F2 | c2 c2 B2 d2 | c4 B4 | A2 A2 G2 F2 | G4 F4 | %9
w: 1.Le|bel An- ge du|Ciel de|ver- tu su- per-|nel- le, Nous|dit: Dieu nous est|né d'u-|ne jeu- ne pu-|cel- le.|
w: 2.Chas-|sons de nous bien|loing le|dueil et la tris-|tes- se. Soy-|ons de coeur joy-|eux, bon-|dis- sons d'al- le-|gres- se.|
w: 3.Il|est né, il est|né, il|a- me- ne la|vi- e, Al-|lons sus donc al-|lons en|Beth- lem la jo-|li- e.|
w: 4.Sa|creche et pau- vre-|té nous|est gloire et ri-|ches- se. Sa|mort nous est la|vie, et|ses lar- mes li-|es- se.|
 z2 F2 c2 c2 | B2 d2 c4 | z2 F2 c2 c2 | B2 d2 c4 | z2 d2 _e2 e2 | d2 c2 d4 | c2 d2 _e2 e2 | %16
w: Sus, sus, o|pas- to- reaux,|Sus, par mons|et par vaux|Lais- sez vos|bre- bi- et-|tes, en- ton- nez|
w: Car Dieu nous|a don- né|Un en- fant|qui est né.|Loups, de la|ber- ge- ri-|e Fuy- ez, cre-|
w: Et haut- bois,|vi- o- lons,|Flut- tes, tam-|bours son- nons,|Fai- sons grand'|me- lo- di-|e à JE- SUS|
w: Sus fai- sons|tout de- voir|De bien le|re- ce- voir.|C'est le Prin-|ce des An-|ges, En- ton- nons|
 d2 c2 d4 | c4 z2 c2 | A2 B2 c2 A2 | B4 A4 | G2 F2 F2 E2 | F4 z2 c2 | A2 B2 c2 A2 | B4 A4 | %24
w: vos mu- set-|tes. Voi-|cy le jo- li-|et le|beau pe- tit Je-|sus. Je-|sus le dou- ce-|let, qui|
w: vez d'en- vi-|e. *|||||||
w: et MA- RI-|E. *|||||||
w: ses lou- an-|ges. *|||||||
 G2 F2 F2 E2 | F4 z2 c2 | B2 A2 G2 G2 |[M:3/4] F4 c2 | c4 d2 | c4 A2 | c4 B2 | A4 G2 | A2 G4 | %33
w: nous vient de là-|sus. Dit|à Em- ma- nu-|el, No-|el, No-|el, No-|el, No-|el, No-|el, No-|
w: |||||||||
w: |||||||||
w: |||||||||
 F6- | F4 z2 |] %35
w: el.|_|
w: ||
w: ||
w: ||
V:2
 F2 | G2 A2 B2 B2 | A4 G4 | F2 F2 E2 F2 | F2 E2 F2 F2 | G2 A2 B2 B2 | A4 G4 | F2 F2 E2 F2 | %8
w: 1.Le|bel An- ge du|Ciel de|ver- tu su- per-|nel- * le, Nous|dit: Dieu nous est|né d'u-|ne jeu- ne pu-|
w: 2.Chas-|sons de nous bien|loing le|dueil et la tris-|tes- * se. Soy-|ons de coeur joy-|eux, bon-|dis- sons d'al- le-|
w: 3.Il|est né, il est|né, il|a- me- ne la|vi- * e, Al-|lons sus donc al-|lons en|Beth- lem la jo-|
w: 4.Sa|creche et pau- vre-|té nous|est gloire et ri-|ches- * se. Sa|mort nous est la|vie, et|ses lar- mes li-|
 F2 E2 F4 | z2 F2 G2 A2 | B2 B2 A4 | z2 F2 G2 A2 | B2 B2 A4 | z2 F2 G2 G2 | F2 F2 D4 | %15
w: cel- * le.|Sus, sus, o|pas- to- reaux,|Sus, par mons|et par vaux|Lais- sez vos|bre- bi- et-|
w: gres- * se.|Car Dieu nous|a don- né|Un en- fant|qui est né.|Loups, de la|ber- ge- ri-|
w: li- * e.|Et haut- bois,|vi- o- lons,|Flut- tes, tam-|bours son- nons,|Fai- sons grand'|me- lo- di-|
w: es- * se.|Sus fai- sons|tout de- voir|De bien le|re- ce- voir.|C'est le Prin-|ce des An-|
 E2 F2 G2 G2 | F2 F2 D4 | E4 z2 E2 | F2 F2 E2 F2 | D4 C4 | C2 A,2 C2 C2 | C4 z2 E2 | F2 F2 E2 F2 | %23
w: tes, en- ton- nez|vos mu- set-|tes. Voi-|cy le jo- li-|et le|beau pe- tit Je-|sus. Je-|sus le dou- ce-|
w: e Fuy- ez, cre-|vez d'en- vi-|e. *||||||
w: e à JE- SUS|et MA- RI-|E. *||||||
w: ges, En- ton- nons|ses lou- an-|ges. *||||||
 D4 C4 | C2 A,2 C2 C2 | C4 z2 A2 | G2 F2 F2 E2 |[M:3/4] F4 A2 | A4 B2 | A4 F2 | G4 F2 | F4 E2 | %32
w: let, qui|nous vient de là-|sus. Dit|à Em- ma- nu-|el, No-|el, No-|el, No-|el, No-|el, No-|
w: |||||||||
w: |||||||||
w: |||||||||
 F4 E2 | F6- | F4 z2 |] %35
w: el, No-|el.|_|
w: |||
w: |||
w: |||
V:3
 A2 | c2 c2 d2 f2 | f4 d4 | d2 c2 c2 A2 | c4 A2 A2 | c2 c2 d2 f2 | f4 d4 | d2 c2 c2 A2 | c4 A4 | %9
w: 1.Le|bel An- ge du|Ciel de|ver- tu su- per-|nel- le, Nous|dit: Dieu nous est|né d'u-|ne jeu- ne pu-|cel- le.|
w: 2.Chas-|sons de nous bien|loing le|dueil et la tris-|tes- se. Soy-|ons de coeur joy-|eux, bon-|dis- sons d'al- le-|gres- se.|
w: 3.Il|est né, il est|né, il|a- me- ne la|vi- e, Al-|lons sus donc al-|lons en|Beth- lem la jo-|li- e.|
w: 4.Sa|creche et pau- vre-|té nous|est gloire et ri-|ches- se. Sa|mort nous est la|vie, et|ses lar- mes li-|es- se.|
 z2 A2 c2 c2 | d2 f2 f4 | z2 A2 c2 c2 | d2 f2 f4 | z2 B2 B2 B2 | B2 c2 c2 =B2 | c2 B2 B2 B2 | %16
w: Sus, sus, o|pas- to- reaux,|Sus, par mons|et par vaux|Lais- sez vos|bre- bi- et- *|tes, en- ton- nez|
w: Car Dieu nous|a don- né|Un en- fant|qui est né.|Loups, de la|ber- ge- ri- *|e Fuy- ez, cre-|
w: Et haut- bois,|vi- o- lons,|Flut- tes, tam-|bours son- nons,|Fai- sons grand'|me- lo- di- *|e à JE- SUS|
w: Sus fai- sons|tout de- voir|De bien le|re- ce- voir.|C'est le Prin-|ce des An- *|ges, En- ton- nons|
 B2 c2 c2 =B2 | c4 z2 c2 | c2 d2 G2 F2 | F4 F4 | E2 F2 G2 G2 | A4 z2 c2 | c2 d2 G2 F2 | F4 F4 | %24
w: vos mu- set- *|tes. Voi-|cy le jo- li-|et le|beau pe- tit Je-|sus. Je-|sus le dou- ce-|let, qui|
w: vez d'en- vi- *|e. *|||||||
w: et MA- RI- *|E. *|||||||
w: ses lou- an- *|ges. *|||||||
 E2 F2 G2 G2 | A4 z2 f2 | d2 c2 d2 c2 |[M:3/4] A4 f2 | f4 f2 | f4 f2- | f2 e2 d2 | c4 c2 | c4 c2 | %33
w: nous vient de là-|sus. Dit|à Em- ma- nu-|el, No-|el, No-|el, No-|* el, No-|el, No-|el, No-|
w: |||||||||
w: |||||||||
w: |||||||||
 A6- | A4 z2 |] %35
w: el.|_|
w: ||
w: ||
w: ||
V:4
 F,2 | E,2 F,2 D,2 B,,2 | F,4 G,4 | D,2 F,2 C,2 D,2 | C,4 F,2 F,2 | E,2 F,2 D,2 B,,2 | F,4 G,4 | %7
w: 1.Le|bel An- ge du|Ciel de|ver- tu su- per-|nel- le, Nous|dit: Dieu nous est|né d'u-|
w: 2.Chas-|sons de nous bien|loing le|dueil et la tris-|tes- se. Soy-|ons de coeur joy-|eux, bon-|
w: 3.Il|est né, il est|né, il|a- me- ne la|vi- e, Al-|lons sus donc al-|lons en|
w: 4.Sa|creche et pau- vre-|té nous|est gloire et ri-|ches- se. Sa|mort nous est la|vie, et|
 D,2 F,2 C,2 D,2 | C,4 F,4 | z2 F,2 E,2 F,2 | D,2 B,,2 F,4 | z2 F,2 E,2 F,2 | D,2 B,,2 F,4 | %13
w: ne jeu- ne pu-|cel- le.|Sus, sus, o|pas- to- reaux,|Sus, par mons|et par vaux|
w: dis- sons d'al- le-|gres- se.|Car Dieu nous|a don- né|Un en- fant|qui est né.|
w: Beth- lem la jo-|li- e.|Et haut- bois,|vi- o- lons,|Flut- tes, tam-|bours son- nons,|
w: ses lar- mes li-|es- se.|Sus fai- sons|tout de- voir|De bien le|re- ce- voir.|
 z2 B,2 _E,2 E,2 | B,2 A,2 G,4 | C2 B,2 _E,2 E,2 | B,2 A,2 G,4 | C,4 z2 C,2 | F,2 D,2 C,2 F,2 | %19
w: Lais- sez vos|bre- bi- et-|tes, en- ton- nez|vos mu- set-|tes. Voi-|cy le jo- li-|
w: Loups, de la|ber- ge- ri-|e Fuy- ez, cre-|vez d'en- vi-|e. *||
w: Fai- sons grand'|me- lo- di-|e à JE- SUS|et MA- RI-|E. *||
w: C'est le Prin-|ce des An-|ges, En- ton- nons|ses lou- an-|ges. *||
 B,,4 F,4 | C,2 D,2 C,2 C,2 | F,4 z2 C,2 | F,2 D,2 C,2 F,2 | B,,4 F,4 | C,2 D,2 C,2 C,2 | %25
w: et le|beau pe- tit Je-|sus. Je-|sus le dou- ce-|let, qui|nous vient de là-|
w: ||||||
w: ||||||
w: ||||||
 F,4 z2 F,2 | G,2 A,2 B,2 C2 |[M:3/4] F,4 F,2 | F,4 B,,2 | F,4 F,2 | C,4 D,2 | F,4 C,2 | F,2 C,4 | %33
w: sus. Dit|à Em- ma- nu-|el, No-|el, No-|el, No-|el, No-|el, No-|el, No-|
w: ||||||||
w: ||||||||
w: ||||||||
 F,6- | F,4 z2 |] %35
w: el.|_|
w: ||
w: ||
w: ||

